assets/images/updates.svg

<svg width="192.92mm" height="48.13mm" version="1.1" viewBox="0 0 192.92 48.13" xml:space="preserve" xmlns="http://www.w3.org/2000/svg"><g transform="translate(23.755 -431.93)"><g transform="matrix(.21435 0 0 .16043 -23.755 431.93)"><path d="m827 300h63v-14h-81v-13h45v-14h18v-14h-45v-13h63v-14h-36v-13h-45v-14h-9v-14h63v-13h-9v-28h36v-27h-90v-14h45v-13h-36v-14h54v-13h9v-14h-72v-14h63v-13h-18v-14h55v300z" fill="#4facf7"/><path d="m764 300h117v-14h-99v-13h18v-14h18v-14h9v-13h54v-14h-63v-13h-36v-14h9v-14h18v-13h9v-14h-18v-14h45v-13h-18v-14h-81v-14h72v-13h-72v-14h72v-13h27v-14h-81v-14h36v-13h36v-14h10v14h18v13h-63v14h72v14h-9v13h-54v14h36v13h-45v14h90v27h-36v28h9v13h-63v14h9v14h45v13h36v14h-63v13h45v14h-18v14h-45v13h81v14h-63z" fill="#3d85c1"/><path d="m710 300h126v-14h-63v-13h18v-14h9v-27h54v-14h-99v-13h-27v-14h-18v-14h63v-13h27v-14h-72v-14h81v-27h-72v-14h63v-13h-117v-14h45v-13h108v-14h-153v-14h63v-13h81v-14h10v14h-36v13h-36v14h81v14h-27v13h-72v14h72v13h-72v14h81v14h18v13h-45v14h18v14h-9v13h-18v14h-9v14h36v13h63v14h-54v13h-9v14h-18v14h-18v13h99v14h-117z" fill="#2b608e"/><path d="m638 300h135v-14h-27v-13h27v-14h-135v-14h54v-13h-18v-14h36v-13h-63v-14h-72v-14h117v-13h-117v-14h81v-14h-45v-13h54v-14h-54v-14h99v-13h-126v-14h108v-13h-18v-14h-153v-14h171v-13h-99v-14h235v14h-81v13h-63v14h153v14h-108v13h-45v14h117v13h-63v14h72v27h-81v14h72v14h-27v13h-63v14h18v14h27v13h99v14h-54v27h-9v14h-18v13h63v14h-126z" fill="#193d5e"/><path d="m476 300h189v-14h-81v-13h-18v-14h-45v-14h-54v-13h90v-14h72v-13h-180v-14h-135v-14h126v-13h45v-14h-126v-14h198v-13h54v-14h-117v-14h-45v-13h-81v-14h72v-13h9v-14h-27v-14h-63v-13h99v-14h136v14h99v13h-171v14h153v14h18v13h-108v14h126v13h-99v14h54v14h-54v13h45v14h-81v14h117v13h-117v14h72v14h63v13h-36v14h18v13h-54v14h135v14h-27v13h27v14h-135z" fill="#071e32"/><path d="m458 300h180v-14h-99v-13h-18v-14h-27v-14h-81v-13h99v-14h117v-13h-225v-14h-99v-14h90v-13h63v-14h-135v-14h189v-13h63v-14h-108v-14h-27v-13h-81v-14h63v-13h18v-14h-63v-14h-27v-13h54v-14h55v14h-99v13h63v14h27v14h-9v13h-72v14h81v13h45v14h117v14h-54v13h-198v14h126v14h-45v13h-126v14h135v14h180v13h-72v14h-90v13h54v14h45v14h18v13h81v14h-189z" fill="#012"/><path d="m422 300h180v-14h-117v-13h9v-14h-126v-14h-45v-13h117v-14h126v-13h-207v-14h-81v-14h-9v-13h153v-14h-171v-14h117v-13h72v-14h-72v-14h18v-13h-81v-14h63v-13h-54v-14h18v-14h-72v-13h90v-14h55v14h-54v13h27v14h63v14h-18v13h-63v14h81v13h27v14h108v14h-63v13h-189v14h135v14h-63v13h-90v14h99v14h225v13h-117v14h-99v13h81v14h27v14h18v13h99v14h-180z" fill="#012"/><path d="m116 300h108v-27h-18v-14h45v-14h-63v-13h72v-27h-9v-14h-63v-14h-117v-13h144v-14h-27v-14h-99v-13h153v-14h-36v-14h-45v-13h108v-14h-36v-13h-27v-14h-63v-14h36v-13h-45v-14h217v14h-90v13h72v14h-18v14h54v13h-63v14h81v13h-18v14h72v14h-72v13h-117v14h171v14h-153v13h9v14h81v14h207v13h-126v14h-117v13h45v14h126v14h-9v13h117v14h-180z" fill="#071e32"/><path d="m89 300h72v-14h36v-13h-72v-14h36v-14h18v-27h45v-13h-126v-14h-45v-14h-27v-13h36v-14h54v-14h-54v-13h27v-28h54v-13h54v-14h-45v-13h-18v-28h9v-13h-36v-14h28v14h45v13h-36v14h63v14h27v13h36v14h-108v13h45v14h36v14h-153v13h99v14h27v14h-144v13h117v14h63v14h9v27h-72v13h63v14h-45v14h18v27h-108z" fill="#193d5e"/><path d="m62 300h72v-14h9v-13h-54v-14h72v-14h9v-13h9v-14h-18v-13h-81v-14h-54v-14h-9v-13h36v-14h18v-14h-36v-13h45v-28h63v-13h-9v-14h-18v-13h-45v-14h27v-14h-18v-13h9v-14h19v14h36v13h-9v28h18v13h45v14h-54v13h-54v28h-27v13h54v14h-54v14h-36v13h27v14h45v14h126v13h-45v27h-18v14h-36v14h72v13h-36v14h-72z" fill="#2b608e"/><path d="m35 300h36v-27h-18v-14h27v-14h-9v-13h9v-27h-18v-14h-54v-27h36v-14h18v-14h-45v-13h18v-14h-18v-14h45v-27h-36v-27h18v-14h27v-13h-63v-14h82v14h-9v13h18v14h-27v14h45v13h18v14h9v13h-63v28h-45v13h36v14h-18v14h-36v13h9v14h54v14h81v13h18v14h-9v13h-9v14h-72v14h54v13h-9v14h-72z" fill="#3d85c1"/><path d="m0 300v-300h9v14h63v13h-27v14h-18v27h36v27h-45v14h18v14h-18v13h45v14h-18v14h-36v27h54v14h18v27h-9v13h9v14h-27v14h18v27h-36z" fill="#4facf7"/></g></g></svg>

<?xml version="1.0" encoding="UTF-8" standalone="no"?>
<!-- Created with Inkscape (http://www.inkscape.org/) -->

<svg
   width="192.91614mm"
   height="48.130497mm"
   viewBox="0 0 192.91614 48.130497"
   version="1.1"
   id="svg658"
   xml:space="preserve"
   inkscape:version="1.2.2 (b0a8486541, 2022-12-01)"
   sodipodi:docname="updates.svg"
   xmlns:inkscape="http://www.inkscape.org/namespaces/inkscape"
   xmlns:sodipodi="http://sodipodi.sourceforge.net/DTD/sodipodi-0.dtd"
   xmlns="http://www.w3.org/2000/svg"
   xmlns:svg="http://www.w3.org/2000/svg"><sodipodi:namedview
     id="namedview660"
     pagecolor="#ffffff"
     bordercolor="#000000"
     borderopacity="0.25"
     inkscape:showpageshadow="2"
     inkscape:pageopacity="0.0"
     inkscape:pagecheckerboard="0"
     inkscape:deskcolor="#d1d1d1"
     inkscape:document-units="mm"
     showgrid="false"
     inkscape:zoom="0.98984054"
     inkscape:cx="503.11134"
     inkscape:cy="188.41419"
     inkscape:window-width="1920"
     inkscape:window-height="1170"
     inkscape:window-x="0"
     inkscape:window-y="0"
     inkscape:window-maximized="1"
     inkscape:current-layer="layer1" /><defs
     id="defs655"><inkscape:path-effect
       effect="spiro"
       id="path-effect8810"
       is_visible="true"
       lpeversion="1" /><inkscape:path-effect
       effect="spiro"
       id="path-effect6021"
       is_visible="true"
       lpeversion="1" /><inkscape:path-effect
       effect="spiro"
       id="path-effect5734"
       is_visible="true"
       lpeversion="1" /><inkscape:path-effect
       effect="spiro"
       id="path-effect5644"
       is_visible="true"
       lpeversion="1" /><inkscape:path-effect
       effect="spiro"
       id="path-effect5644-8"
       is_visible="true"
       lpeversion="1" /><inkscape:path-effect
       effect="spiro"
       id="path-effect2140-18"
       is_visible="true"
       lpeversion="1" /><inkscape:path-effect
       effect="spiro"
       id="path-effect2140-18-9"
       is_visible="true"
       lpeversion="1" /><inkscape:path-effect
       effect="spiro"
       id="path-effect8810-4"
       is_visible="true"
       lpeversion="1" /><clipPath
       clipPathUnits="userSpaceOnUse"
       id="clipPath54575"><rect
         style="fill:none;stroke:#000000;stroke-width:1;stroke-linejoin:bevel;stroke-opacity:1"
         id="rect54577"
         width="79.375"
         height="135.33041"
         x="85.315681"
         y="504.06805" /></clipPath><clipPath
       clipPathUnits="userSpaceOnUse"
       id="clipPath54579"><rect
         style="fill:none;stroke:#000000;stroke-width:1;stroke-linejoin:bevel;stroke-opacity:1"
         id="rect54581"
         width="79.375"
         height="135.33041"
         x="85.315681"
         y="504.06805" /></clipPath><clipPath
       clipPathUnits="userSpaceOnUse"
       id="clipPath58339"><rect
         style="fill:none;stroke:#000000;stroke-width:0.770578;stroke-linejoin:bevel;stroke-dasharray:none;stroke-opacity:1"
         id="rect58341"
         width="78.604431"
         height="60.873787"
         x="85.700966"
         y="508.02695" /></clipPath><clipPath
       clipPathUnits="userSpaceOnUse"
       id="clipPath58345"><rect
         style="fill:none;stroke:#000000;stroke-width:0.262146;stroke-linejoin:bevel;stroke-dasharray:none;stroke-opacity:1"
         id="rect58347"
         width="79.112831"
         height="51.331585"
         x="85.446777"
         y="574.17877" /></clipPath></defs><g
     inkscape:label="Layer 1"
     inkscape:groupmode="layer"
     id="layer1"
     transform="translate(23.755074,-431.93053)"><g
       id="g64850"
       transform="matrix(0.21435126,0,0,0.16043499,-23.755074,431.93053)"><path
         d="m 827,300 h 63 v -14 h -81 v -13 h 45 v -14 h 18 v -14 h -45 v -13 h 63 v -14 h -36 v -13 h -45 v -14 h -9 v -14 h 63 v -13 h -9 v -14 0 -14 h 36 v -13 0 -14 H 800 V 95 h 45 V 82 H 809 V 68 h 54 V 55 h 9 V 41 H 800 V 27 h 63 V 14 H 845 V 0 h 55 v 14 0 13 0 14 0 14 0 13 0 14 0 13 0 14 0 14 0 13 0 14 0 14 0 13 0 14 0 14 0 13 0 14 0 13 0 14 0 14 0 13 0 14 0 z"
         fill="#4facf7"
         id="path64809" /><path
         d="m 764,300 h 117 v -14 h -99 v -13 h 18 v -14 h 18 v -14 h 9 v -13 h 54 v -14 h -63 v -13 h -36 v -14 h 9 v -14 h 18 v -13 h 9 v -14 h -18 v -14 h 45 V 123 H 827 V 109 H 746 V 95 h 72 V 82 H 746 V 68 h 72 V 55 h 27 V 41 H 764 V 27 h 36 V 14 h 36 V 0 h 10 v 14 h 18 v 13 h -63 v 14 h 72 v 14 h -9 v 13 h -54 v 14 h 36 v 13 h -45 v 14 h 90 v 14 0 13 h -36 v 14 0 14 h 9 v 13 h -63 v 14 h 9 v 14 h 45 v 13 h 36 v 14 h -63 v 13 h 45 v 14 h -18 v 14 h -45 v 13 h 81 v 14 h -63 z"
         fill="#3d85c1"
         id="path64811" /><path
         d="m 710,300 h 126 v -14 h -63 v -13 h 18 v -14 h 9 v -14 0 -13 h 54 v -14 h -99 v -13 h -27 v -14 h -18 v -14 h 63 v -13 h 27 v -14 h -72 v -14 h 81 v -13 0 -14 H 737 V 95 h 63 V 82 H 683 V 68 h 45 V 55 H 836 V 41 H 683 V 27 h 63 V 14 h 81 V 0 h 10 v 14 h -36 v 13 h -36 v 14 h 81 v 14 h -27 v 13 h -72 v 14 h 72 v 13 h -72 v 14 h 81 v 14 h 18 v 13 h -45 v 14 h 18 v 14 h -9 v 13 h -18 v 14 h -9 v 14 h 36 v 13 h 63 v 14 h -54 v 13 h -9 v 14 h -18 v 14 h -18 v 13 h 99 v 14 H 765 Z"
         fill="#2b608e"
         id="path64813" /><path
         d="m 638,300 h 135 v -14 h -27 v -13 h 27 V 259 H 638 v -14 h 54 v -13 h -18 v -14 h 36 V 205 H 647 V 191 H 575 V 177 H 692 V 164 H 575 v -14 h 81 v -14 h -45 v -13 h 54 V 109 H 611 V 95 h 99 V 82 H 584 V 68 H 692 V 55 H 674 V 41 H 521 V 27 H 692 V 14 H 593 V 0 H 828 V 14 H 747 V 27 H 684 V 41 H 837 V 55 H 729 v 13 h -45 v 14 h 117 v 13 h -63 v 14 h 72 v 14 0 13 h -81 v 14 h 72 v 14 h -27 v 13 h -63 v 14 h 18 v 14 h 27 v 13 h 99 v 14 h -54 v 13 0 14 h -9 v 14 h -18 v 13 h 63 v 14 H 711 Z"
         fill="#193d5e"
         id="path64815" /><path
         d="m 476,300 h 189 v -14 h -81 v -13 h -18 v -14 h -45 v -14 h -54 v -13 h 90 v -14 h 72 V 205 H 449 V 191 H 314 v -14 h 126 v -13 h 45 V 150 H 359 v -14 h 198 v -13 h 54 V 109 H 494 V 95 H 449 V 82 H 368 V 68 h 72 V 55 h 9 V 41 H 422 V 27 H 359 V 14 h 99 V 0 h 136 v 14 h 99 V 27 H 522 v 14 h 153 v 14 h 18 V 68 H 585 v 14 h 126 v 13 h -99 v 14 h 54 v 14 h -54 v 13 h 45 v 14 h -81 v 14 h 117 v 13 H 576 v 14 h 72 v 14 h 63 v 13 h -36 v 14 h 18 v 13 h -54 v 14 h 135 v 14 h -27 v 13 h 27 v 14 H 639 Z"
         fill="#071e32"
         id="path64817" /><path
         d="m 458,300 h 180 v -14 h -99 v -13 h -18 v -14 h -27 v -14 h -81 v -13 h 99 V 218 H 629 V 205 H 404 v -14 h -99 v -14 h 90 v -13 h 63 V 150 H 323 v -14 h 189 v -13 h 63 V 109 H 467 V 95 H 440 V 82 H 359 V 68 h 63 V 55 h 18 V 41 H 377 V 27 H 350 V 14 h 54 V 0 h 55 v 14 h -99 v 13 h 63 v 14 h 27 v 14 h -9 v 13 h -72 v 14 h 81 v 13 h 45 v 14 h 117 v 14 h -54 v 13 H 360 v 14 h 126 v 14 h -45 v 13 H 315 v 14 h 135 v 14 h 180 v 13 h -72 v 14 h -90 v 13 h 54 v 14 h 45 v 14 h 18 v 13 h 81 v 14 H 477 Z"
         fill="#001122"
         id="path64819" /><path
         d="M 422,300 H 602 V 286 H 485 v -13 h 9 V 259 H 368 V 245 H 323 V 232 H 440 V 218 H 566 V 205 H 359 v -14 h -81 v -14 h -9 V 164 H 422 V 150 H 251 v -14 h 117 v -13 h 72 V 109 H 368 V 95 h 18 V 82 H 305 V 68 h 63 V 55 H 314 V 41 h 18 V 27 H 260 V 14 h 90 V 0 h 55 v 14 h -54 v 13 h 27 v 14 h 63 v 14 h -18 v 13 h -63 v 14 h 81 v 13 h 27 v 14 h 108 v 14 h -63 v 13 H 324 v 14 h 135 v 14 h -63 v 13 h -90 v 14 h 99 v 14 h 225 v 13 H 513 v 14 h -99 v 13 h 81 v 14 h 27 v 14 h 18 v 13 h 99 v 14 H 459 Z"
         fill="#001122"
         id="path64821" /><path
         d="m 116,300 h 108 v -14 0 -13 h -18 v -14 h 45 v -14 h -63 v -13 h 72 v -14 0 -13 h -9 V 191 H 188 V 177 H 71 V 164 H 215 V 150 H 188 V 136 H 89 V 123 H 242 V 109 H 206 V 95 H 161 V 82 H 269 V 68 H 233 V 55 H 206 V 41 H 143 V 27 h 36 V 14 H 134 V 0 h 217 v 14 h -90 v 13 h 72 v 14 h -18 v 14 h 54 v 13 h -63 v 14 h 81 v 13 h -18 v 14 h 72 v 14 h -72 v 13 H 252 v 14 h 171 v 14 H 270 v 13 h 9 v 14 h 81 v 14 h 207 v 13 H 441 v 14 H 324 v 13 h 45 v 14 h 126 v 14 h -9 v 13 h 117 v 14 H 423 Z"
         fill="#071e32"
         id="path64823" /><path
         d="m 89,300 h 72 v -14 h 36 v -13 h -72 v -14 h 36 v -14 h 18 v -13 0 -14 h 45 V 205 H 98 V 191 H 53 V 177 H 26 v -13 h 36 v -14 h 54 V 136 H 62 v -13 h 27 v -14 0 -14 h 54 V 82 h 54 V 68 H 152 V 55 H 134 V 41 41 27 h 9 V 14 H 107 V 0 h 28 v 14 h 45 v 13 h -36 v 14 h 63 v 14 h 27 v 13 h 36 V 82 H 162 v 13 h 45 v 14 h 36 v 14 H 90 v 13 h 99 v 14 h 27 v 14 H 72 v 13 h 117 v 14 h 63 v 14 h 9 v 13 0 14 h -72 v 13 h 63 v 14 h -45 v 14 h 18 v 13 0 14 H 117 Z"
         fill="#193d5e"
         id="path64825" /><path
         d="m 62,300 h 72 v -14 h 9 V 273 H 89 v -14 h 72 v -14 h 9 v -13 h 9 V 218 H 161 V 205 H 80 V 191 H 26 V 177 H 17 V 164 H 53 V 150 H 71 V 136 H 35 v -13 h 45 v -14 0 -14 h 63 V 82 h -9 V 68 H 116 V 55 H 71 V 41 H 98 V 27 H 80 V 14 h 9 V 0 h 19 v 14 h 36 v 13 h -9 v 14 0 14 h 18 v 13 h 45 V 82 H 144 V 95 H 90 v 14 0 14 H 63 v 13 h 54 v 14 H 63 v 14 H 27 v 13 h 27 v 14 h 45 v 14 h 126 v 13 h -45 v 14 0 13 h -18 v 14 h -36 v 14 h 72 v 13 h -36 v 14 H 90 Z"
         fill="#2b608e"
         id="path64827" /><path
         d="m 35,300 h 36 v -14 0 -13 H 53 v -14 h 27 v -14 h -9 v -13 h 9 v -14 0 -13 H 62 V 191 H 8 v -14 0 -13 H 44 V 150 H 62 V 136 H 17 V 123 H 35 V 109 H 17 V 95 H 62 V 82 82 68 H 26 V 55 55 41 H 44 V 27 H 71 V 14 H 8 V 0 H 90 V 14 H 81 V 27 H 99 V 41 H 72 v 14 h 45 v 13 h 18 v 14 h 9 V 95 H 81 v 14 0 14 H 36 v 13 h 36 v 14 H 54 v 14 H 18 v 13 h 9 v 14 h 54 v 14 h 81 v 13 h 18 v 14 h -9 v 13 h -9 v 14 H 90 v 14 h 54 v 13 h -9 v 14 H 63 Z"
         fill="#3d85c1"
         id="path64829" /><path
         d="m 0,300 v 0 -14 0 -13 0 -14 0 -14 0 -13 0 -14 0 -13 0 -14 0 -14 0 -13 0 -14 0 -14 0 -13 0 -14 0 V 95 95 82 82 68 68 55 55 41 41 27 27 14 14 0 H 9 V 14 H 72 V 27 H 45 V 41 H 27 v 14 0 13 h 36 v 14 0 13 H 18 v 14 h 18 v 14 H 18 v 13 h 45 v 14 H 45 v 14 H 9 v 13 0 14 h 54 v 14 h 18 v 13 0 14 h -9 v 13 h 9 v 14 H 54 v 14 h 18 v 13 0 14 H 36 Z"
         fill="#4facf7"
         id="path64831" /></g></g></svg>
